X:48
T:Gravel walk, The
R:Reel
O:Ireland
M:4/4
K:ADor
A2 eA BA eA|A2 eA BA GB|\
A2 eA Bd ef|ge dc BA GB:|
A2 aA gA fA|A2 eA BA GB|\
A2 aA gA ef|gf ge dB GB|
A2 aA gA fA|A2 eA BA GB|\
AB cd ef ga|ge dc BA GB||
cA AG A2 AB|cA (3AAA BG Bd|\
cA AG A2 ef|gf ge dB GB:|
c2 gc ac gc|c2 gc BA GB|\
c2 gc ac ga|ge dc BA GB|
c2 gc ac gc|c2 gc BA GB |1\
AB cd eg fa|ge dc BA GB :|2\
Aa (3aaa ag ea|af ge dB GB||
